(G-CODE GENERATED BY FLATCAM v8.99 - www.flatcam.org - Version Date: 2019/12/15)

(Name: arduino-fanatec-pcb-B_Cu.gbr_iso_cnc_1)
(Type: G-code from Geometry)
(Units: MM)

(Created on Saturday, 28 December 2019 at 18:01)

(TOOL DIAMETER: 0.5 mm)
(Feedrate: 120.0 mm/min)
(Feedrate_Z: 60.0 mm/min)
(Feedrate rapids 1500.0 mm/min)

(Z_Cut: -2.0 mm)
(Z_Move: 2.0 mm)
(Z Toolchange: 15.0 mm)
(X,Y Toolchange: 0.0000, 0.0000 mm)
(Z Start: None mm)
(Z End: 15.0 mm)
(Steps per circle: 64)
(Preprocessor Geometry: default)

(X range:    0.3100 ...   35.4800  mm)
(Y range:    0.4398 ...   49.2902  mm)

(Spindle Speed: None RPM)
G21
G90
G94




G01 F120.00
G00 Z2.0000

M03
G00 X1.3723 Y14.6203
G01 F60.00
G01 Z-2.0000
G01 F120.00
G01 X1.4507 Y14.6242
G01 X1.4629 Y14.6251
G01 X1.4751 Y14.6266
G01 X1.5528 Y14.6381
G01 X1.5648 Y14.6402
G01 X1.5768 Y14.6429
G01 X1.6530 Y14.6619
G01 X1.6648 Y14.6652
G01 X1.6765 Y14.6691
G01 X1.7504 Y14.6955
G01 X1.7618 Y14.6999
G01 X1.7730 Y14.7049
G01 X1.8440 Y14.7385
G01 X1.8550 Y14.7440
G01 X1.8656 Y14.7500
G01 X1.9330 Y14.7904
G01 X1.9434 Y14.7970
G01 X1.9534 Y14.8040
G01 X2.0164 Y14.8508
G01 X2.0261 Y14.8583
G01 X2.0354 Y14.8664
G01 X2.0936 Y14.9191
G01 X2.1025 Y14.9275
G01 X2.1109 Y14.9364
G01 X2.1636 Y14.9946
G01 X2.1717 Y15.0039
G01 X2.1792 Y15.0136
G01 X2.2260 Y15.0766
G01 X2.2330 Y15.0866
G01 X2.2396 Y15.0970
G01 X2.2800 Y15.1644
G01 X2.2860 Y15.1750
G01 X2.2915 Y15.1860
G01 X2.3251 Y15.2570
G01 X2.3301 Y15.2682
G01 X2.3345 Y15.2796
G01 X2.3609 Y15.3535
G01 X2.3648 Y15.3652
G01 X2.3681 Y15.3770
G01 X2.3871 Y15.4532
G01 X2.3898 Y15.4652
G01 X2.3919 Y15.4772
G01 X2.4034 Y15.5549
G01 X2.4049 Y15.5671
G01 X2.4058 Y15.5793
G01 X2.4097 Y15.6577
G01 X2.4100 Y15.6700
G01 X2.4097 Y15.6823
G01 X2.4058 Y15.7607
G01 X2.4049 Y15.7729
G01 X2.4034 Y15.7851
G01 X2.3919 Y15.8628
G01 X2.3898 Y15.8748
G01 X2.3871 Y15.8868
G01 X2.3681 Y15.9630
G01 X2.3648 Y15.9748
G01 X2.3609 Y15.9865
G01 X2.3345 Y16.0604
G01 X2.3301 Y16.0718
G01 X2.3251 Y16.0830
G01 X2.2915 Y16.1540
G01 X2.2860 Y16.1650
G01 X2.2800 Y16.1756
G01 X2.2396 Y16.2430
G01 X2.2330 Y16.2534
G01 X2.2260 Y16.2634
G01 X2.1792 Y16.3264
G01 X2.1717 Y16.3361
G01 X2.1636 Y16.3454
G01 X2.1109 Y16.4036
G01 X2.1025 Y16.4125
G01 X2.0936 Y16.4209
G01 X2.0354 Y16.4736
G01 X2.0261 Y16.4817
G01 X2.0164 Y16.4892
G01 X1.9534 Y16.5360
G01 X1.9434 Y16.5430
G01 X1.9330 Y16.5496
G01 X1.8656 Y16.5900
G01 X1.8550 Y16.5960
G01 X1.8440 Y16.6015
G01 X1.7730 Y16.6351
G01 X1.7618 Y16.6401
G01 X1.7504 Y16.6445
G01 X1.6765 Y16.6709
G01 X1.6648 Y16.6748
G01 X1.6530 Y16.6781
G01 X1.5768 Y16.6971
G01 X1.5648 Y16.6998
G01 X1.5528 Y16.7019
G01 X1.4751 Y16.7134
G01 X1.4629 Y16.7149
G01 X1.4507 Y16.7158
G01 X1.3723 Y16.7197
G01 X1.3600 Y16.7200
G01 X1.3477 Y16.7197
G01 X1.2693 Y16.7158
G01 X1.2571 Y16.7149
G01 X1.2449 Y16.7134
G01 X1.1672 Y16.7019
G01 X1.1552 Y16.6998
G01 X1.1432 Y16.6971
G01 X1.0670 Y16.6781
G01 X1.0552 Y16.6748
G01 X1.0435 Y16.6709
G01 X0.9696 Y16.6445
G01 X0.9582 Y16.6401
G01 X0.9470 Y16.6351
G01 X0.8760 Y16.6015
G01 X0.8650 Y16.5960
G01 X0.8544 Y16.5900
G01 X0.7870 Y16.5496
G01 X0.7766 Y16.5430
G01 X0.7666 Y16.5360
G01 X0.7036 Y16.4892
G01 X0.6939 Y16.4817
G01 X0.6846 Y16.4736
G01 X0.6264 Y16.4209
G01 X0.6175 Y16.4125
G01 X0.6091 Y16.4036
G01 X0.5564 Y16.3454
G01 X0.5483 Y16.3361
G01 X0.5408 Y16.3264
G01 X0.4940 Y16.2634
G01 X0.4870 Y16.2534
G01 X0.4804 Y16.2430
G01 X0.4400 Y16.1756
G01 X0.4340 Y16.1650
G01 X0.4285 Y16.1540
G01 X0.3949 Y16.0830
G01 X0.3899 Y16.0718
G01 X0.3855 Y16.0604
G01 X0.3591 Y15.9865
G01 X0.3552 Y15.9748
G01 X0.3519 Y15.9630
G01 X0.3329 Y15.8868
G01 X0.3302 Y15.8748
G01 X0.3281 Y15.8628
G01 X0.3166 Y15.7851
G01 X0.3151 Y15.7729
G01 X0.3142 Y15.7607
G01 X0.3103 Y15.6823
G01 X0.3100 Y15.6700
G01 X0.3103 Y15.6577
G01 X0.3142 Y15.5793
G01 X0.3151 Y15.5671
G01 X0.3166 Y15.5549
G01 X0.3281 Y15.4772
G01 X0.3302 Y15.4652
G01 X0.3329 Y15.4532
G01 X0.3519 Y15.3770
G01 X0.3552 Y15.3652
G01 X0.3591 Y15.3535
G01 X0.3855 Y15.2796
G01 X0.3899 Y15.2682
G01 X0.3949 Y15.2570
G01 X0.4285 Y15.1860
G01 X0.4340 Y15.1750
G01 X0.4400 Y15.1644
G01 X0.4804 Y15.0970
G01 X0.4870 Y15.0866
G01 X0.4940 Y15.0766
G01 X0.5408 Y15.0136
G01 X0.5483 Y15.0039
G01 X0.5564 Y14.9946
G01 X0.6091 Y14.9364
G01 X0.6175 Y14.9275
G01 X0.6264 Y14.9191
G01 X0.6846 Y14.8664
G01 X0.6939 Y14.8583
G01 X0.7036 Y14.8508
G01 X0.7666 Y14.8040
G01 X0.7766 Y14.7970
G01 X0.7870 Y14.7904
G01 X0.8544 Y14.7500
G01 X0.8650 Y14.7440
G01 X0.8760 Y14.7385
G01 X0.9470 Y14.7049
G01 X0.9582 Y14.6999
G01 X0.9696 Y14.6955
G01 X1.0435 Y14.6691
G01 X1.0552 Y14.6652
G01 X1.0670 Y14.6619
G01 X1.1432 Y14.6429
G01 X1.1552 Y14.6402
G01 X1.1672 Y14.6381
G01 X1.2449 Y14.6266
G01 X1.2571 Y14.6251
G01 X1.2693 Y14.6242
G01 X1.3477 Y14.6203
G01 X1.3600 Y14.6200
G01 X1.3723 Y14.6203
G00 Z2.0000
G00 X1.5444 Y17.1768
G01 F60.00
G01 Z-2.0000
G01 F120.00
G01 X3.1198 Y15.6015
G01 X3.1198 Y7.0551
G01 X3.1218 Y7.0085
G01 X3.1227 Y6.9963
G01 X3.1292 Y6.9501
G01 X3.1313 Y6.9380
G01 X3.1340 Y6.9260
G01 X3.1456 Y6.8809
G01 X3.1610 Y6.8369
G01 X3.1655 Y6.8254
G01 X3.1704 Y6.8142
G01 X3.1851 Y6.7831
G01 X3.1906 Y6.7722
G01 X3.1967 Y6.7615
G01 X3.2143 Y6.7320
G01 X3.2209 Y6.7217
G01 X3.2280 Y6.7116
G01 X3.2560 Y6.6744
G01 X3.2640 Y6.6651
G01 X3.2956 Y6.6307
G01 X9.3107 Y0.6155
G01 X9.3451 Y0.5840
G01 X9.3544 Y0.5760
G01 X9.3916 Y0.5480
G01 X9.4017 Y0.5409
G01 X9.4120 Y0.5343
G01 X9.4415 Y0.5167
G01 X9.4522 Y0.5106
G01 X9.4632 Y0.5051
G01 X9.5054 Y0.4854
G01 X9.5169 Y0.4810
G01 X9.5609 Y0.4656
G01 X9.5727 Y0.4623
G01 X9.6180 Y0.4513
G01 X9.6641 Y0.4442
G01 X9.6763 Y0.4426
G01 X9.6885 Y0.4417
G01 X9.7351 Y0.4398
G01 X20.6709 Y0.4398
G01 X20.7175 Y0.4417
G01 X20.7297 Y0.4426
G01 X20.7759 Y0.4492
G01 X20.7880 Y0.4513
G01 X20.8000 Y0.4540
G01 X20.8451 Y0.4656
G01 X20.8891 Y0.4810
G01 X20.9006 Y0.4854
G01 X20.9118 Y0.4904
G01 X20.9538 Y0.5106
G01 X20.9940 Y0.5343
G01 X21.0043 Y0.5409
G01 X21.0144 Y0.5480
G01 X21.0516 Y0.5760
G01 X21.0609 Y0.5840
G01 X21.0953 Y0.6155
G01 X26.5745 Y6.0947
G01 X26.6060 Y6.1291
G01 X26.6140 Y6.1384
G01 X26.6420 Y6.1756
G01 X26.6491 Y6.1857
G01 X26.6557 Y6.1960
G01 X26.6733 Y6.2255
G01 X26.6794 Y6.2362
G01 X26.6849 Y6.2471
G01 X26.7046 Y6.2894
G01 X26.7090 Y6.3009
G01 X26.7244 Y6.3449
G01 X26.7360 Y6.3900
G01 X26.7387 Y6.4020
G01 X26.7408 Y6.4141
G01 X26.7474 Y6.4603
G01 X26.7499 Y6.5068
G01 X26.7502 Y6.5191
G01 X26.7502 Y8.3935
G01 X30.8865 Y12.5298
G01 X30.9185 Y12.5298
G01 X30.9254 Y12.5189
G01 X30.9324 Y12.5088
G01 X30.9821 Y12.4418
G01 X30.9897 Y12.4322
G01 X30.9977 Y12.4229
G01 X31.0537 Y12.3611
G01 X31.0622 Y12.3522
G01 X31.0711 Y12.3437
G01 X31.1329 Y12.2877
G01 X31.1422 Y12.2797
G01 X31.1518 Y12.2721
G01 X31.2188 Y12.2224
G01 X31.2289 Y12.2154
G01 X31.2392 Y12.2088
G01 X31.3108 Y12.1659
G01 X31.3215 Y12.1599
G01 X31.3324 Y12.1544
G01 X31.4078 Y12.1187
G01 X31.4190 Y12.1137
G01 X31.4305 Y12.1093
G01 X31.5090 Y12.0812
G01 X31.5207 Y12.0774
G01 X31.5325 Y12.0741
G01 X31.6134 Y12.0538
G01 X31.6254 Y12.0511
G01 X31.6375 Y12.0490
G01 X31.7200 Y12.0368
G01 X31.7322 Y12.0353
G01 X31.7444 Y12.0344
G01 X31.8277 Y12.0303
G01 X31.8400 Y12.0300
G01 X31.8523 Y12.0303
G01 X31.9356 Y12.0344
G01 X31.9478 Y12.0353
G01 X31.9600 Y12.0368
G01 X32.0425 Y12.0490
G01 X32.0546 Y12.0511
G01 X32.0666 Y12.0538
G01 X32.1475 Y12.0741
G01 X32.1593 Y12.0774
G01 X32.1710 Y12.0812
G01 X32.2495 Y12.1093
G01 X32.2610 Y12.1137
G01 X32.2722 Y12.1187
G01 X32.3476 Y12.1544
G01 X32.3585 Y12.1599
G01 X32.3692 Y12.1659
G01 X32.4408 Y12.2088
G01 X32.4511 Y12.2154
G01 X32.4612 Y12.2224
G01 X32.5282 Y12.2721
G01 X32.5378 Y12.2797
G01 X32.5471 Y12.2877
G01 X32.6089 Y12.3437
G01 X32.6178 Y12.3522
G01 X32.6263 Y12.3611
G01 X32.6823 Y12.4229
G01 X32.6903 Y12.4322
G01 X32.6979 Y12.4418
G01 X32.7476 Y12.5088
G01 X32.7546 Y12.5189
G01 X32.7612 Y12.5292
G01 X32.8041 Y12.6008
G01 X32.8101 Y12.6115
G01 X32.8156 Y12.6224
G01 X32.8513 Y12.6978
G01 X32.8563 Y12.7090
G01 X32.8607 Y12.7205
G01 X32.8888 Y12.7990
G01 X32.8926 Y12.8107
G01 X32.8959 Y12.8225
G01 X32.9162 Y12.9034
G01 X32.9189 Y12.9154
G01 X32.9210 Y12.9275
G01 X32.9332 Y13.0100
G01 X32.9347 Y13.0222
G01 X32.9356 Y13.0344
G01 X32.9397 Y13.1177
G01 X32.9400 Y13.1300
G01 X32.9397 Y13.1423
G01 X32.9356 Y13.2256
G01 X32.9347 Y13.2378
G01 X32.9332 Y13.2500
G01 X32.9210 Y13.3325
G01 X32.9189 Y13.3446
G01 X32.9162 Y13.3566
G01 X32.8959 Y13.4375
G01 X32.8926 Y13.4493
G01 X32.8888 Y13.4610
G01 X32.8607 Y13.5395
G01 X32.8563 Y13.5510
G01 X32.8513 Y13.5622
G01 X32.8156 Y13.6376
G01 X32.8101 Y13.6485
G01 X32.8041 Y13.6592
G01 X32.7612 Y13.7308
G01 X32.7546 Y13.7411
G01 X32.7476 Y13.7512
G01 X32.6979 Y13.8182
G01 X32.6903 Y13.8278
G01 X32.6823 Y13.8371
G01 X32.6263 Y13.8989
G01 X32.6178 Y13.9078
G01 X32.6089 Y13.9163
G01 X32.5471 Y13.9723
G01 X32.5378 Y13.9803
G01 X32.5282 Y13.9879
G01 X32.4612 Y14.0376
G01 X32.4511 Y14.0446
G01 X32.4408 Y14.0512
G01 X32.3692 Y14.0941
G01 X32.3585 Y14.1001
G01 X32.3476 Y14.1056
G01 X32.2722 Y14.1413
G01 X32.2610 Y14.1463
G01 X32.2495 Y14.1507
G01 X32.1710 Y14.1788
G01 X32.1593 Y14.1826
G01 X32.1475 Y14.1859
G01 X32.0666 Y14.2062
G01 X32.0546 Y14.2089
G01 X32.0425 Y14.2110
G01 X31.9600 Y14.2232
G01 X31.9478 Y14.2247
G01 X31.9356 Y14.2256
G01 X31.8523 Y14.2297
G01 X31.8400 Y14.2300
G01 X31.8277 Y14.2297
G01 X31.7444 Y14.2256
G01 X31.7322 Y14.2247
G01 X31.7200 Y14.2232
G01 X31.6375 Y14.2110
G01 X31.6254 Y14.2089
G01 X31.6134 Y14.2062
G01 X31.5325 Y14.1859
G01 X31.5207 Y14.1826
G01 X31.5090 Y14.1788
G01 X31.4305 Y14.1507
G01 X31.4190 Y14.1463
G01 X31.4078 Y14.1413
G01 X31.3324 Y14.1056
G01 X31.3215 Y14.1001
G01 X31.3108 Y14.0941
G01 X31.2392 Y14.0512
G01 X31.2289 Y14.0446
G01 X31.2188 Y14.0376
G01 X31.1518 Y13.9879
G01 X31.1422 Y13.9803
G01 X31.1329 Y13.9723
G01 X31.0711 Y13.9163
G01 X31.0622 Y13.9078
G01 X31.0537 Y13.8989
G01 X30.9977 Y13.8371
G01 X30.9897 Y13.8278
G01 X30.9821 Y13.8182
G01 X30.9324 Y13.7512
G01 X30.9254 Y13.7411
G01 X30.9185 Y13.7302
G01 X30.6318 Y13.7301
G01 X30.5791 Y13.7273
G01 X30.5329 Y13.7207
G01 X30.5208 Y13.7186
G01 X30.5089 Y13.7160
G01 X30.4637 Y13.7043
G01 X30.4197 Y13.6889
G01 X30.4082 Y13.6845
G01 X30.3970 Y13.6795
G01 X30.3550 Y13.6593
G01 X30.3148 Y13.6356
G01 X30.3045 Y13.6290
G01 X30.2944 Y13.6220
G01 X30.2572 Y13.5939
G01 X30.2224 Y13.5628
G01 X30.2135 Y13.5544
G01 X25.7257 Y9.0665
G01 X25.6941 Y9.0322
G01 X25.6861 Y9.0229
G01 X25.6786 Y9.0132
G01 X25.6510 Y8.9756
G01 X25.6268 Y8.9357
G01 X25.6208 Y8.9251
G01 X25.6152 Y8.9141
G01 X25.5956 Y8.8718
G01 X25.5912 Y8.8604
G01 X25.5757 Y8.8164
G01 X25.5641 Y8.7712
G01 X25.5614 Y8.7592
G01 X25.5593 Y8.7471
G01 X25.5528 Y8.7010
G01 X25.5502 Y8.6544
G01 X25.5499 Y8.6421
G01 X25.5499 Y6.7677
G01 X20.4223 Y1.6401
G01 X9.9837 Y1.6401
G01 X4.3201 Y7.3037
G01 X4.3201 Y15.8501
G01 X4.3181 Y15.8967
G01 X4.3172 Y15.9089
G01 X4.3107 Y15.9551
G01 X4.3086 Y15.9671
G01 X4.3059 Y15.9791
G01 X4.2943 Y16.0243
G01 X4.2788 Y16.0683
G01 X4.2744 Y16.0797
G01 X4.2548 Y16.1220
G01 X4.2492 Y16.1330
G01 X4.2432 Y16.1437
G01 X4.2190 Y16.1835
G01 X4.1914 Y16.2211
G01 X4.1839 Y16.2308
G01 X4.1759 Y16.2401
G01 X4.1486 Y16.2701
G01 X2.3932 Y18.0256
G01 X2.4034 Y18.0949
G01 X2.4049 Y18.1071
G01 X2.4058 Y18.1193
G01 X2.4097 Y18.1977
G01 X2.4100 Y18.2100
G01 X2.4097 Y18.2223
G01 X2.4058 Y18.3007
G01 X2.4049 Y18.3129
G01 X2.4034 Y18.3251
G01 X2.3919 Y18.4028
G01 X2.3898 Y18.4148
G01 X2.3871 Y18.4268
G01 X2.3681 Y18.5030
G01 X2.3648 Y18.5148
G01 X2.3609 Y18.5265
G01 X2.3345 Y18.6004
G01 X2.3301 Y18.6118
G01 X2.3251 Y18.6230
G01 X2.2915 Y18.6940
G01 X2.2860 Y18.7050
G01 X2.2800 Y18.7156
G01 X2.2396 Y18.7830
G01 X2.2330 Y18.7934
G01 X2.2260 Y18.8034
G01 X2.1792 Y18.8664
G01 X2.1717 Y18.8761
G01 X2.1636 Y18.8854
G01 X2.1109 Y18.9436
G01 X2.1025 Y18.9525
G01 X2.0936 Y18.9609
G01 X2.0354 Y19.0136
G01 X2.0261 Y19.0217
G01 X2.0164 Y19.0292
G01 X1.9534 Y19.0760
G01 X1.9434 Y19.0830
G01 X1.9330 Y19.0896
G01 X1.8656 Y19.1300
G01 X1.8550 Y19.1360
G01 X1.8440 Y19.1415
G01 X1.7730 Y19.1751
G01 X1.7618 Y19.1801
G01 X1.7504 Y19.1845
G01 X1.6765 Y19.2109
G01 X1.6648 Y19.2148
G01 X1.6530 Y19.2181
G01 X1.5768 Y19.2371
G01 X1.5648 Y19.2398
G01 X1.5528 Y19.2419
G01 X1.4751 Y19.2534
G01 X1.4629 Y19.2549
G01 X1.4507 Y19.2558
G01 X1.3723 Y19.2597
G01 X1.3600 Y19.2600
G01 X1.3477 Y19.2597
G01 X1.2693 Y19.2558
G01 X1.2571 Y19.2549
G01 X1.2449 Y19.2534
G01 X1.1672 Y19.2419
G01 X1.1552 Y19.2398
G01 X1.1432 Y19.2371
G01 X1.0670 Y19.2181
G01 X1.0552 Y19.2148
G01 X1.0435 Y19.2109
G01 X0.9696 Y19.1845
G01 X0.9582 Y19.1801
G01 X0.9470 Y19.1751
G01 X0.8760 Y19.1415
G01 X0.8650 Y19.1360
G01 X0.8544 Y19.1300
G01 X0.7870 Y19.0896
G01 X0.7766 Y19.0830
G01 X0.7666 Y19.0760
G01 X0.7036 Y19.0292
G01 X0.6939 Y19.0217
G01 X0.6846 Y19.0136
G01 X0.6264 Y18.9609
G01 X0.6175 Y18.9525
G01 X0.6091 Y18.9436
G01 X0.5564 Y18.8854
G01 X0.5483 Y18.8761
G01 X0.5408 Y18.8664
G01 X0.4940 Y18.8034
G01 X0.4870 Y18.7934
G01 X0.4804 Y18.7830
G01 X0.4400 Y18.7156
G01 X0.4340 Y18.7050
G01 X0.4285 Y18.6940
G01 X0.3949 Y18.6230
G01 X0.3899 Y18.6118
G01 X0.3855 Y18.6004
G01 X0.3591 Y18.5265
G01 X0.3552 Y18.5148
G01 X0.3519 Y18.5030
G01 X0.3329 Y18.4268
G01 X0.3302 Y18.4148
G01 X0.3281 Y18.4028
G01 X0.3166 Y18.3251
G01 X0.3151 Y18.3129
G01 X0.3142 Y18.3007
G01 X0.3103 Y18.2223
G01 X0.3100 Y18.2100
G01 X0.3103 Y18.1977
G01 X0.3142 Y18.1193
G01 X0.3151 Y18.1071
G01 X0.3166 Y18.0949
G01 X0.3281 Y18.0172
G01 X0.3302 Y18.0052
G01 X0.3329 Y17.9932
G01 X0.3519 Y17.9170
G01 X0.3552 Y17.9052
G01 X0.3591 Y17.8935
G01 X0.3855 Y17.8196
G01 X0.3899 Y17.8082
G01 X0.3949 Y17.7970
G01 X0.4285 Y17.7260
G01 X0.4340 Y17.7150
G01 X0.4400 Y17.7044
G01 X0.4804 Y17.6370
G01 X0.4870 Y17.6266
G01 X0.4940 Y17.6166
G01 X0.5408 Y17.5536
G01 X0.5483 Y17.5439
G01 X0.5564 Y17.5346
G01 X0.6091 Y17.4764
G01 X0.6175 Y17.4675
G01 X0.6264 Y17.4591
G01 X0.6846 Y17.4064
G01 X0.6939 Y17.3983
G01 X0.7036 Y17.3908
G01 X0.7666 Y17.3440
G01 X0.7766 Y17.3370
G01 X0.7870 Y17.3304
G01 X0.8544 Y17.2900
G01 X0.8650 Y17.2840
G01 X0.8760 Y17.2785
G01 X0.9470 Y17.2449
G01 X0.9582 Y17.2399
G01 X0.9696 Y17.2355
G01 X1.0435 Y17.2091
G01 X1.0552 Y17.2052
G01 X1.0670 Y17.2019
G01 X1.1432 Y17.1829
G01 X1.1552 Y17.1802
G01 X1.1672 Y17.1781
G01 X1.2449 Y17.1666
G01 X1.2571 Y17.1651
G01 X1.2693 Y17.1642
G01 X1.3477 Y17.1603
G01 X1.3600 Y17.1600
G01 X1.3723 Y17.1603
G01 X1.4507 Y17.1642
G01 X1.4629 Y17.1651
G01 X1.4751 Y17.1666
G01 X1.5444 Y17.1768
G00 Z2.0000
G00 X1.3723 Y19.7003
G01 F60.00
G01 Z-2.0000
G01 F120.00
G01 X1.4507 Y19.7042
G01 X1.4629 Y19.7051
G01 X1.4751 Y19.7066
G01 X1.5444 Y19.7168
G01 X4.4198 Y16.8415
G01 X4.4198 Y7.5936
G01 X4.4218 Y7.5470
G01 X4.4227 Y7.5348
G01 X4.4292 Y7.4886
G01 X4.4313 Y7.4765
G01 X4.4340 Y7.4645
G01 X4.4456 Y7.4194
G01 X4.4610 Y7.3754
G01 X4.4655 Y7.3639
G01 X4.4704 Y7.3527
G01 X4.4851 Y7.3216
G01 X4.4906 Y7.3107
G01 X4.4967 Y7.3000
G01 X4.5144 Y7.2705
G01 X4.5209 Y7.2601
G01 X4.5280 Y7.2501
G01 X4.5560 Y7.2128
G01 X4.5640 Y7.2036
G01 X4.5956 Y7.1692
G01 X9.8536 Y1.9113
G01 X9.8928 Y1.8760
G01 X9.9301 Y1.8480
G01 X9.9401 Y1.8409
G01 X9.9505 Y1.8344
G01 X9.9800 Y1.8167
G01 X9.9907 Y1.8106
G01 X10.0016 Y1.8051
G01 X10.0439 Y1.7855
G01 X10.0554 Y1.7810
G01 X10.0994 Y1.7656
G01 X10.1112 Y1.7623
G01 X10.1565 Y1.7513
G01 X10.2026 Y1.7442
G01 X10.2148 Y1.7427
G01 X10.2270 Y1.7418
G01 X10.2736 Y1.7398
G01 X20.1324 Y1.7398
G01 X20.1790 Y1.7418
G01 X20.1912 Y1.7427
G01 X20.2374 Y1.7492
G01 X20.2495 Y1.7513
G01 X20.2615 Y1.7540
G01 X20.3066 Y1.7656
G01 X20.3506 Y1.7810
G01 X20.3621 Y1.7855
G01 X20.3733 Y1.7904
G01 X20.4153 Y1.8106
G01 X20.4555 Y1.8344
G01 X20.4659 Y1.8409
G01 X20.4759 Y1.8480
G01 X20.5132 Y1.8760
G01 X20.5224 Y1.8840
G01 X20.5568 Y1.9156
G01 X25.2744 Y6.6332
G01 X25.3060 Y6.6676
G01 X25.3140 Y6.6768
G01 X25.3215 Y6.6865
G01 X25.3491 Y6.7241
G01 X25.3733 Y6.7640
G01 X25.3794 Y6.7747
G01 X25.3849 Y6.7856
G01 X25.4045 Y6.8279
G01 X25.4090 Y6.8394
G01 X25.4244 Y6.8834
G01 X25.4360 Y6.9285
G01 X25.4387 Y6.9405
G01 X25.4408 Y6.9526
G01 X25.4473 Y6.9988
G01 X25.4502 Y7.0515
G01 X25.4502 Y9.6335
G01 X30.8865 Y15.0698
G01 X30.9185 Y15.0698
G01 X30.9254 Y15.0589
G01 X30.9324 Y15.0488
G01 X30.9821 Y14.9818
